X: 20454
T: John Joe Harnett's
R: polka
M: 2/4
K: Gmajor
|:B/c/B/A/ G>B|AB/A/ GE|DG- GB|AB/A/ Gd|
B2 BA|AG EG/E/|DG dB|AB/A/ G2:|
|:Bd dg|ed g2|Bd- dg|dB AG/A/|
Bd- dg|e/g/e/d/ gd|B/c/B/A/ GB/G/|AG G2:|

